X:1
T:I Am the Way
T:I Am the Way
T:Hampton Haygood Sewell
T:Fowler Glenn, 1918
T:Public Domain Courtesy of the Cyber Hymnal™
T:Public Domain Courtesy of the Cyber Hymnal™
C:Hampton Haygood Sewell
Z:Public Domain
Z:Courtesy of the Cyber Hymnal™
%%score ( 1 2 ) ( 3 4 )
L:1/8
Q:1/4=110
M:6/8
K:Db
V:1 treble 
V:2 treble 
V:3 bass 
V:4 bass 
V:1
 [FA] | [GB]2 [FA] [DF]2 [Fd] | [Gd]3 [Gc]3 | [Gc][GB][FA] [EG]2 [FA] | [DF]3- [DF]2 [FA] | %5
w: 1.~O|soul by e- vil|driv- en,|Need- ing both light and|cheer, * That|
w: 2.~In|search of world- ly|plea- sure,|Down- ward you go each|day, * While|
w: 3.~Just|let the Sav- ior|guide you,|Hap- py you then will|be, * For|
w: 4.~If|you would meet in|Heav- en|Those that you miss to-|day, * The|
 [FB]2 [FA] [DF]2 [Fd] | [Ec]3 [Ae]3 | [=GB][Ac][Bd] [Ac]2 [GB] | (z3 G3) |:"^Refrain" A4 FA | %10
w: hope to you be|giv- en,|Je- sus your Sav- ior||hear. * *|
w: o- thers lay up|trea- sure,|Fol- low- ing life’s true||way. “I am|
w: He will stay be-|side you,|Keep- ing you pure and||free. * *|
w: Bless- èd One must|lead you—|He is the on- ly||way. * *|
 d3- [Fd]2 [Fd] | c4 d[Ge] | d6 |1 [DB]2 [DB] (GA)[DB] | [DA][DA][DA] [DF]2 [Fd] | [Ec]3 [DB]3 | %16
w: ||||||
w: the way, the|* truth and|the|life; No man * com-|eth un- to the Fa-|ther but|
w: ||||||
w: ||||||
 A6 :|2 [Gd]2 [Gd] (dc)[GB] || [FA][FA][Fd] [FA]2 [EG] | [DF]3 (G2 E) | D3- D2 |] %21
w: |||||
w: by|Me; No man * com-|eth un- to the Fa-|ther but *|by *|
w: |||||
w: |||||
V:2
 x | x6 | x6 | x6 | x6 | x6 | x6 | x6 | A4 x2 |: (FFF F) x2 | FFG x3 | (GGG G) x2 | (FAG F3) |1 %13
 x3 D2 x | x6 | x6 | (C3 G3) :|2 x3 G2 x || x6 | x3 B,3 | D3- D2 |] %21
V:3
 [D,D] | [D,D]2 [D,D] [D,A,]2 [D,A,] | [E,A,]3 [A,,A,]3 | [A,,A,][A,,A,][A,,A,] [A,,C]2 [A,,C] | %4
w: ~|~ ~ ~ ~|~ ~|~ ~ ~ ~ ~|
 [D,A,]3- [D,A,]2 [D,D] | [D,D]2 [D,D] [D,A,]2 [D,A,] | [E,A,]3 [E,C]3 | %7
w: ~ * ~|~ ~ ~ ~|~ ~|
 [E,E][E,E][E,E] [E,E]2 [E,D] | [A,,C]6 |: [D,D][D,D][D,D] [D,D] z2 | %10
w: ~ ~ ~ ~ ~|~|“I am the way,|
 [D,A,][D,A,][D,B,] [D,A,]2 [D,A,] | [A,,A,][A,,A,][A,,A,] [A,,A,] z [A,,C] | %12
w: I am the way, the|truth and the life, the|
 [D,D][D,C][D,B,] [D,A,]3 |1 G,2 G, ([G,B,][F,A,])G, | [F,A,][F,A,][F,A,] [D,A,]2 [D,A,] | %15
w: truth and the life;”|||
 [E,A,]3 [E,=G,]3 | (A,3 C3) :|2 [G,B,]2 [G,B,] (B,C)[G,D] || [D,D][D,D][D,A,] [D,D]2 [G,B,] | %19
w: ||||
 A,3 (E,2 G,) | [D,F,]3- [D,F,]2 |] %21
w: ||
V:4
 x | x6 | x6 | x6 | x6 | x6 | x6 | x6 | x6 |: x6 | x6 | x6 | x6 |1 G,2 G, x G, x | x6 | x6 | %16
 A,,6 :|2 x3 G,2 x || x6 | A,3 A,,3 | x5 |] %21

